svg/u1f51c.svg

<svg viewBox="0 0 128 128" xmlns="http://www.w3.org/2000/svg">
  <g>
    <path d="M116,4H12c-4.42,0-8,3.58-8,8v104c0,4.42,3.58,8,8,8h104c4.42,0,8-3.58,8-8V12 C124,7.58,120.42,4,116,4z" fill="#427687"/>
    <path d="M109.7,4H11.5C7.37,4.03,4.03,7.37,4,11.5v97.9c-0.01,4.14,3.34,7.49,7.48,7.5c0.01,0,0.01,0,0.02,0 h98.1c4.14,0.01,7.49-3.34,7.5-7.48c0-0.01,0-0.01,0-0.02V11.5c0.09-4.05-3.13-7.41-7.18-7.5C109.85,4,109.77,4,109.7,4z" fill="#8CAFBF"/>
    <g opacity="0.2">
      <path d="M26.3,105.3c-0.88,0.07-1.75-0.14-2.5-0.6c-0.27-0.18-0.42-0.48-0.4-0.8c-0.09-0.6-0.3-1.18-0.6-1.7 l1.8,0.6c2.6,0.8,3.4,1.3,3.6,1.5c0.08,0.12,0.12,0.26,0.1,0.4c0,0.2,0,0.2-0.1,0.3C27.59,105.23,26.95,105.33,26.3,105.3z" fill="none"/>
    </g>
    <path d="M77.6,17l24,24c1.66,1.46,1.82,3.99,0.35,5.65c-0.11,0.13-0.23,0.24-0.35,0.35l-24,24 c-1.68,1.44-4.2,1.24-5.64-0.44C71.35,69.85,71.01,68.94,71,68V54c0-1.1-0.9-2-2-2H23c-2.21,0-4-1.79-4-4v-8c0-2.21,1.79-4,4-4h46 c1.1,0,2-0.9,2-2V20c0.02-2.21,1.83-3.98,4.04-3.96C75.98,16.05,76.89,16.39,77.6,17z" fill="#FAFAFA"/>
    <path d="M39.7,12.9c0-2.3-1.6-3-10.8-2.7c-7.7,0.3-11.5,1.2-13.8,4 s-2.9,8.5-3,15.3c0,4.8,0,9.3,2.5,9.3c3.4,0,3.4-7.9,6.2-12.3C26.2,17.8,39.7,15.9,39.7,12.9z" opacity="0.5" fill="#B4E1ED" enable-background="new "/>
  </g>
  <g>
    <path d="M28.06,103.94c0,2.51-0.9,4.49-2.71,5.94c-1.81,1.45-4.33,2.17-7.55,2.17 c-2.97,0-5.6-0.56-7.88-1.68v-5.48c1.88,0.84,3.47,1.43,4.77,1.77c1.3,0.34,2.49,0.51,3.57,0.51c1.29,0,2.29-0.25,2.98-0.74 c0.69-0.5,1.04-1.23,1.04-2.21c0-0.55-0.15-1.03-0.46-1.46c-0.3-0.42-0.75-0.83-1.34-1.23c-0.59-0.39-1.79-1.02-3.61-1.88 c-1.7-0.8-2.98-1.57-3.83-2.3s-1.53-1.59-2.04-2.57s-0.76-2.12-0.76-3.43c0-2.46,0.83-4.4,2.5-5.81c1.67-1.41,3.98-2.11,6.92-2.11 c1.45,0,2.83,0.17,4.14,0.51c1.31,0.34,2.69,0.83,4.12,1.45l-1.9,4.59c-1.49-0.61-2.71-1.04-3.68-1.28 c-0.97-0.24-1.93-0.36-2.87-0.36c-1.12,0-1.97,0.26-2.57,0.78s-0.9,1.2-0.9,2.04c0,0.52,0.12,0.97,0.36,1.36 c0.24,0.39,0.62,0.76,1.15,1.12c0.53,0.36,1.77,1.01,3.74,1.95c2.6,1.24,4.39,2.49,5.35,3.74 C27.58,100.59,28.06,102.12,28.06,103.94z" fill="#FAFAFA"/>
    <path d="M56.62,97.71c0,4.61-1.14,8.15-3.43,10.63s-5.56,3.71-9.83,3.71s-7.54-1.24-9.83-3.71 s-3.43-6.03-3.43-10.66s1.15-8.17,3.44-10.62c2.29-2.44,5.58-3.67,9.85-3.67s7.55,1.23,9.82,3.69 C55.49,89.55,56.62,93.09,56.62,97.71z M36.3,97.71c0,3.11,0.59,5.45,1.77,7.03s2.95,2.36,5.29,2.36c4.71,0,7.06-3.13,7.06-9.39 c0-6.27-2.34-9.41-7.03-9.41c-2.35,0-4.12,0.79-5.31,2.37C36.9,92.26,36.3,94.6,36.3,97.71z" fill="#FAFAFA"/>
    <path d="M84.74,97.71c0,4.61-1.14,8.15-3.43,10.63s-5.56,3.71-9.83,3.71c-4.27,0-7.54-1.24-9.83-3.71 s-3.43-6.03-3.43-10.66s1.15-8.17,3.44-10.62c2.29-2.44,5.58-3.67,9.86-3.67c4.28,0,7.55,1.23,9.82,3.69S84.74,93.09,84.74,97.71z M64.42,97.71c0,3.11,0.59,5.45,1.77,7.03s2.95,2.36,5.29,2.36c4.71,0,7.07-3.13,7.07-9.39c0-6.27-2.34-9.41-7.03-9.41 c-2.35,0-4.12,0.79-5.31,2.37C65.01,92.26,64.42,94.6,64.42,97.71z" fill="#FAFAFA"/>
    <path d="M112.28,111.67h-7.5L92.67,90.61H92.5c0.24,3.72,0.36,6.37,0.36,7.96v13.1h-5.28V83.83h7.45 l12.09,20.85h0.13c-0.19-3.62-0.29-6.18-0.29-7.67V83.83h5.31V111.67z" fill="#FAFAFA"/>
  </g>
</svg>

<svg viewBox="0 0 128 128" xmlns="http://www.w3.org/2000/svg">
  <defs/>
  <path d="M116,4 L12,4 C7.58,4 4,7.58 4,12 L4,116 C4,120.42 7.58,124 12,124 L116,124 C120.42,124 124,120.42 124,116 L124,12 C124,7.58 120.42,4 116,4 Z" fill="#427687"/>
  <path d="M109.7,4 L11.5,4 C7.37,4.03 4.03,7.37 4,11.5 L4,109.4 C3.99,113.54 7.34,116.89 11.48,116.9 C11.49,116.9 11.49,116.9 11.5,116.9 L109.6,116.9 C113.74,116.91 117.09,113.56 117.1,109.42 C117.1,109.41 117.1,109.41 117.1,109.4 L117.1,11.5 C117.19,7.45 113.97,4.09 109.92,4 C109.85,4 109.77,4 109.7,4 Z" fill="#8CAFBF"/>
  <path d="M77.6,17 L101.6,41 C103.26,42.46 103.42,44.99 101.95,46.65 C101.84,46.78 101.72,46.89 101.6,47 L77.6,71 C75.92,72.44 73.4,72.24 71.96,70.56 C71.35,69.85 71.01,68.94 71,68 L71,54 C71,52.9 70.1,52 69,52 L23,52 C20.79,52 19,50.21 19,48 L19,40 C19,37.79 20.79,36 23,36 L69,36 C70.1,36 71,35.1 71,34 L71,20 C71.02,17.79 72.83,16.02 75.04,16.04 C75.98,16.05 76.89,16.39 77.6,17 Z" fill="#FAFAFA"/>
  <path d="M39.7,12.9 C39.7,10.6 38.1,9.9 28.9,10.2 C21.2,10.5 17.4,11.4 15.1,14.2 C12.8,17 12.2,22.7 12.1,29.5 C12.1,34.3 12.1,38.8 14.6,38.8 C18,38.8 18,30.9 20.8,26.5 C26.2,17.8 39.7,15.9 39.7,12.9 Z" fill="#B4E1ED" opacity="0.5"/>
  <path d="M28.06,103.94 C28.06,106.45 27.16,108.43 25.35,109.88 C23.54,111.33 21.02,112.05 17.8,112.05 C14.83,112.05 12.2,111.49 9.92,110.37 L9.92,104.89 C11.8,105.73 13.39,106.32 14.69,106.66 C15.99,107 17.18,107.17 18.26,107.17 C19.55,107.17 20.55,106.92 21.24,106.43 C21.93,105.93 22.28,105.2 22.28,104.22 C22.28,103.67 22.13,103.19 21.82,102.76 C21.52,102.34 21.07,101.93 20.48,101.53 C19.89,101.14 18.69,100.51 16.87,99.65 C15.17,98.85 13.89,98.08 13.04,97.35 C12.19,96.62 11.51,95.76 11,94.78 C10.49,93.8 10.24,92.66 10.24,91.35 C10.24,88.89 11.07,86.95 12.74,85.54 C14.41,84.13 16.72,83.43 19.66,83.43 C21.11,83.43 22.49,83.6 23.8,83.94 C25.11,84.28 26.49,84.77 27.92,85.39 L26.02,89.98 C24.53,89.37 23.31,88.94 22.34,88.7 C21.37,88.46 20.41,88.34 19.47,88.34 C18.35,88.34 17.5,88.6 16.9,89.12 C16.3,89.64 16,90.32 16,91.16 C16,91.68 16.12,92.13 16.36,92.52 C16.6,92.91 16.98,93.28 17.51,93.64 C18.04,94 19.28,94.65 21.25,95.59 C23.85,96.83 25.64,98.08 26.6,99.33 C27.58,100.59 28.06,102.12 28.06,103.94 Z" fill="#FAFAFA"/>
  <path d="M56.62,97.71 C56.62,102.32 55.48,105.86 53.19,108.34 C50.9,110.82 47.63,112.05 43.36,112.05 C39.09,112.05 35.82,110.81 33.53,108.34 C31.24,105.87 30.1,102.31 30.1,97.68 C30.1,93.05 31.25,89.51 33.54,87.06 C35.83,84.62 39.12,83.39 43.39,83.39 C47.66,83.39 50.94,84.62 53.21,87.08 C55.49,89.55 56.62,93.09 56.62,97.71 Z M36.3,97.71 C36.3,100.82 36.89,103.16 38.07,104.74 C39.25,106.32 41.02,107.1 43.36,107.1 C48.07,107.1 50.42,103.97 50.42,97.71 C50.42,91.44 48.08,88.3 43.39,88.3 C41.04,88.3 39.27,89.09 38.08,90.67 C36.9,92.26 36.3,94.6 36.3,97.71 Z" fill="#FAFAFA"/>
  <path d="M84.74,97.71 C84.74,102.32 83.6,105.86 81.31,108.34 C79.02,110.82 75.75,112.05 71.48,112.05 C67.21,112.05 63.94,110.81 61.65,108.34 C59.36,105.87 58.22,102.31 58.22,97.68 C58.22,93.05 59.37,89.51 61.66,87.06 C63.95,84.62 67.24,83.39 71.52,83.39 C75.8,83.39 79.07,84.62 81.34,87.08 C83.61,89.54 84.74,93.09 84.74,97.71 Z M64.42,97.71 C64.42,100.82 65.01,103.16 66.19,104.74 C67.37,106.32 69.14,107.1 71.48,107.1 C76.19,107.1 78.55,103.97 78.55,97.71 C78.55,91.44 76.21,88.3 71.52,88.3 C69.17,88.3 67.4,89.09 66.21,90.67 C65.01,92.26 64.42,94.6 64.42,97.71 Z" fill="#FAFAFA"/>
  <path d="M112.28,111.67 L104.78,111.67 L92.67,90.61 L92.5,90.61 C92.74,94.33 92.86,96.98 92.86,98.57 L92.86,111.67 L87.58,111.67 L87.58,83.83 L95.03,83.83 L107.12,104.68 L107.25,104.68 C107.06,101.06 106.96,98.5 106.96,97.01 L106.96,83.83 L112.27,83.83 L112.27,111.67 Z" fill="#FAFAFA"/>
</svg>
